X: 301
T: Beyati Peşrev
C: Tanburî İsak
O: Turkey
F: http://compmusic.upf.edu/node/140
N: beyati--pesrev--darbifetih----tanburi_isak
N: makam= beyati
N: form= pesrev
N: usul= darbifetih = 88/4
M: 88/4
L: 1/16
K: C _2/4B   
Q: 1/4=44
%%MIDI tuningsystem comma53
d3c B2 A2 B4 c4  | d8 G2 A2 B2 c2  | \
w:  1. HANE   |   | 
d6 e2 d2 e2 d2 c2  | B4 {d}c2 B2 c4 {e}d2 c2  | 
w:   |   | 
d4 {f}e2 d2 e6 z2  | f3e f2 g2 f3e d4  | \
w:   |   | 
d2 z2 e2 d2 e4 c4  | d2 f2 e2 d2 c2 B2 A2 G2  | 
w:   |   | 
d6 e2 d4 c4  | B3A B2 c2 B3A G4  | d6 e2 d4 c4  | \
w:   |   |   | 
B3A B2 c2 B4 c4  | 
w:   | 
c2 z2 A2 B2 c2 d2 e2 f2  | d2 e2 d2 c2 B2 d2 c2 B2  | \
w:   |   | 
c3B A6 z2 A2 A2  | 
w:   | 
A2 B2 c2 d2 c2 d2 e2 f2  | e4 f8 e4  | \
w:   |   | 
f4 e4 f4 z4  | d2 e2 f2 g2 a2 g2 f2 e2  | 
w:   |   | 
g2 f2 e2 d2 e2 d2 e4  | e2 z2 g2 f2 e6 d2  | \
w:   |   | 
d6 e2 d4 c4  | B4 {d}c2 B2 c4 {e}d2 c2  | 
w:   |   | 
d4 {f}e2 d2 e6 z2  | e4 f8 e4  | e2 d2 c4 e4 f4  | \
w:   |   |   | 
f2 z2 e2 f2 a2 g2 f2 e2  | 
w:   | 
g2 f2 e2 d2 e2 d2 e4  | e2 z2 g2 f2 e4 d4  | \
w:   |   | 
d6 e2 d4 c2 B2  | c2 B2 c2 d2 c2 d2 c2 B2  | 
w:   |   | 
B2 f2 e2 d2 c2 B2 A4  | z4 d2 e2 f4 g2 a2  | \
w:   |   | 
g4 f2 e2 d4 c4  | d3e f2 g2 e2 f2 d2 e2  | 
w:   |   | 
c2 d2 c2 B2 c3B A4  | A2 z2 a2 a2 a4 _7/8b2 g2  | \
w:   |   | 
f4 e4 d4 c4  | c2 z2 B2 c2 d4 c2 B2  | 
w:   |   | 
A2 B4 c2 B3A G2 A2  | G4 A8 B4  | G6 c2 B2 c2 d2 e2  | \
w:   |   |   | 
c4 d8 c2 B2  | e2 d2 c2 B2 A6 z2  | 
w:   |   | 
c4 d8 c4  | d4 c4 d6 z2  | c2 d2 e2 f2 g2 f2 e2 d2  | \
w:  2. HANE   |   |   | 
f2 e2 d2 c2 e2 d2 c2 B2  | 
w:   | 
B4 c8 B4  | c4 B4 c6 z2  | B2 c2 d2 e2 d4 c2 B2  | \
w:   |   |   | 
B3A B2 c2 B3A G4  | 
w:   | 
c4 d8 c4  | d4 c4 d6 z2  | c2 d2 e2 f2 g2 f2 e2 d2  | \
w:   |   |   | 
f2 e2 d2 c2 e2 d2 c2 B2  | 
w:   | 
B4 c8 B4  | c4 B4 c6 z2  | B2 c2 d2 e2 d4 c2 B2  | \
w:   |   |   | 
A6 G2 A2 B2 c4  | B3A G4 z4 B2 ^A2  | 
w:   |   | 
B8 c2 d2 c2 B2  | d6 e2 d4 c2 B2  | c2 B2 c2 d2 e2 d2 c2 B2  | \
w:   |   |   | 
A6 B2 A4 G2 ^F2  | 
w:   | 
G6 z2 c2 d2 c2 B2  | A6 B2 c4 d4  | _7/8e4 ^f4 g4 a4  | \
w:   |   |   | 
^f4 g8 f4  | _7/8e4 d4 c8  | z4 c2 c2 c4 g4  | 
w:   |   |   | 
^f4 {a}g2 f2 _7/8e4 {g}f2 e2  | d4 {^f}_7/8e2 d2 c6 z2  | \
w:   |   | 
c2 d2 c2 B2 A2 B2 c2 d2  | c2 B2 c2 d2 c4 d2 e2  | 
w:   |   | 
d4 c2 B2 A8  | z4 d2 e2 f4 g2 a2  | g4 f2 e2 d4 c4  | \
w:   |   |   | 
d3e f2 g2 e2 f2 d2 e2  | 
w:   | 
c2 d2 c2 B2 c3B A4  | A2 z2 a2 a2 a4 a2 g2  | \
w:   |   | 
f4 e4 d4 c4  | c2 z2 B2 c2 d4 c2 B2  | 
w:   |   | 
A2 B4 c2 B3A G2 A2  | G4 A8 B4  | G6 g2 ^f2 g2 a2 b2  | \
w:   |   |   | 
g4 a8 g2 ^f2  | a4 g2 ^f2 f2 e2 d4  | 
w:   |   | 
g4 a8 g4  | a4 g4 a6 z2  | g3a b2 c'2 d'2 c'2 b2 a2  | \
w:  3. HANE   |   |   | 
g6 ^f2 f3e d4  | z4 g2 g2 g4 ^f4  | 
w:   |   | 
g4 ^f4 g6 z2  | a6 ^f2 g2 a2 g2 f2  | \
w:   |   | 
g4 a8 b4  | a6 b2 a4 b2 c'2  | b3a g4 z4 b2 c'2  | 
w:   |   |   | 
d'6 e'2 d'4 c'2 b2  | c'3b c'2 d'2 e'2 d'2 c'2 b2  | \
w:   |   | 
a6 c'2 b2 a2 g2 ^f2  | g6 z2 c'2 d'2 c'2 b2  | 
w:   |   | 
a6 c'2 b4 a4  | g4 ^f4 e4 d4  | z4 a2 a2 a4 g4  | \
w:   |   |   | 
a4 g4 a6 z2  | g2 a2 b2 c'2 d'2 c'2 b2 a2  | 
w:   |   | 
a2 g4 ^f2 f3e d4  | z4 g2 g2 g4 ^f4  | \
w:   |   | 
g4 ^f4 g6 z2  | ^f6 g2 a2 b2 a2 g2  | 
w:   |   | 
a2 g2 ^f2 e2 f2 e2 f4  | z4 ^f2 f2 f4 e4  | \
w:   |   | 
^f4 e4 f6 z2  | ^f3e f2 g2 f2 g2 f2 e2  | 
w:   |   | 
e3d e2 f2 e2 f2 e2 d2  | d3c d2 e2 d2 e2 d2 c2  | \
w:   |   | 
B2 d2 c2 B2 B3A G4  | 
w:   | 
z4 B2 c2 B4 c4  | d8 z4 e2 ^f2  | g6 ^f2 e2 f2 g2 f2  | \
w:   |   |   | 
^f3e d6 z2 f2 g2  | 
w:   | 
a12 g4  | g2 a2 b2 c'2 b2 c'2 a2 b2  | \
w:   |   | 
g2 a2 ^f2 g2 e2 =f2 d2 e2  | e3d c4 z4 e2 d2  | 
w:   |   | 
d4 c4 B4 {e}d2 c2  | B8 A8  | G4 A8 B4  | \
w:   |   |   | 
G6 c2 B2 c2 d2 e2  | c4 d8 c2 B2  | d4 c2 B2 B2 A2 A4  | 
w:   |   |   | 
B4 {d}c2 B2 c4 {e}d2 c2  | d12 G4  | \
w:  4. HANE   |   | 
d6 _7/8e2 d4 c4  | B4 {d}c2 B2 c4 {e}d2 c2  | \
w:   |   | 
d6 c2 _7/8e2 d2 c2 =Bc  | 
w:   | 
=B4 c8 G4  | e4 f8 e4  | e4 d4 e6 z2  | \
w:   |   |   | 
e4 f4 g2 a2 g2 f2  | e4 ^d4 e6 z2  | \
w:   |   | 
f3e d2 e2 d4 e4  | 
w:   | 
f6 e2 e2 f2 g2 a2  | g6 e2 f2 g2 f2 e2  | \
w:   |   | 
d6 B2 c2 d2 c2 B2  | c4 d8 f2 e2  | 
w:   |   | 
d4 c2 B2 B3A G4  | z4 B2 c2 d2 f2 e2 d2  | \
w:   |   | 
c2 B2 c2 d2 c2 B2 A4  | A2 z2 A2 B2 c4 d4  | 
w:   |   | 
c4 d4 e6 z2  | e3d c2 d2 c4 d4  | e8-e2 z2 g2 f2  | \
w:   |   |   | 
e8 d6 z2  | d6 e2 d4 e2 f2  | 
w:   |   | 
e3d c2 d2 c4 d4  | e8-e2 z2 g2 f2  | \
w:   |   | 
e8 d8  | d3c d2 e2 d4 e2 f2  | e3d c2 d2 c4 d4  | 
w:   |   |   | 
e8-e2 z2 g2 f2  | e8 d6 z2  | d6 e2 d4 e2 f2  | \
w:   |   |   | 
e3d c2 d2 c4 d4  | e8-e2 z2 g2 f2  | 
w:   |   | 
e8 d6 z2  | d6 e2 d4 e2 f2  | e3d c2 d2 c4 d4  | \
w:   |   |   | 
e8-e2 z2 g2 f2  | e8 d6 z2  | 
w:   |   | 
c2 d2 c2 B2 c3B A4  | A2 z2 B2 c2 d4 e4  | \
w:   |   | 
d6 B2 c2 d2 c2 B2  | c3B A8 G4  | 
w:   |   | 
c4 d8-d2 z2  | d6 c2 d4 ^f2 _7/8e2  | \
w:   |  5. HANE   | 
_7/8e2 d6 d2 c6  | c2 B6 c2 d2 c2 B2  | \
w:   |   | 
c4 d12  | 
w:   | 
z4 d2 d2 d4 a2 g2  | f4 {a}g2 f2 e4 {g}f2 e2  | \
w:   |   | 
d4 {f}e2 d2 c4 {e}d2 c2  | B4 {d}c2 B2 c4 {e}d2 c2  | 
w:   |   | 
d4 {f}e2 d2 e6 z2  | f3e f2 g2 a2 g2 f2 e2  | \
w:   |   | 
f3e d8 a4  | a2 g2 {a}g2 f2 e8  | 
w:   |   | 
f3e f2 g2 a2 g2 f2 e2  | d6 e2 d4 c2 B2  | \
w:   |   | 
c3B c2 d2 c2 d2 c2 B2  | 
w:   | 
A8 B3A G2 A2  | G4 A6 z2 A2 A2  | A6 c2 B2 c2 d4  | \
w:   |   |   | 
A4 _7/8B8 A4  | A4 G8 F4  | 
w:   |   | 
G2 A4 GG G6 FF  | F4 E4 D4 E4  | F8 z4 E2 F2  | \
w:   |   |   | 
G6 A2 G3F E2 F2  | 
w:   | 
G8 z4 F2 G2  | A6 _B2 A3G F2 G2  | A6 c2 =B2 c2 d4  | \
w:   |   |   | 
z4 A2 A2 A4 e4  | d4 {f}e2 d2 c4 {e}d2 c2  | 
w:   |   | 
B4 {d}c2 B2 A4 {c}B2 A2  | G4 d4 z4 B2 c2  | \
w:   |   | 
B4 c4 d4 e4  | f6 e2 f4 g2 a2  | g4 f2 e2 d4 c4  | 
w:   |   |   | 
d3e f2 g2 e2 f2 d2 e2  | c2 d2 c2 B2 c3B A4  | \
w:   |   | 
A2 z2 a2 a2 a4 {b}a2 g2  | 
w:   | 
f4 e4 d4 c4  | c2 z2 B2 c2 d4 c2 B2  | \
w:   |   | 
A2 B4 c2 B3A G2 A2  | G4 A8 B4  | 
w:   |   | 
G6 c2 B2 c2 d2 e2  | d4 c2 B2 c3B A4  | \
w:   |   | 
A2 z2 A2 A2 A8  | |


